packages/ffe-icons/icons/filled/md/compare.svg

<svg xmlns="http://www.w3.org/2000/svg" height="24" viewBox="0 -960 960 960" width="24"><path d="M420.001-140.001H212.309q-30.308 0-51.308-21t-21-51.308v-535.382q0-30.308 21-51.308t51.308-21h207.692v-54.616q0-12.769 8.616-21.384 8.615-8.615 21.384-8.615t21.384 8.615Q480-887.384 480-874.615v789.23q0 12.769-8.615 21.384t-21.384 8.615q-12.769 0-21.384-8.615-8.616-8.615-8.616-21.384v-54.616ZM200-240h220.001v-263.848L200-240Zm360 99.999V-480l200 240v-507.691q0-4.616-3.846-8.463-3.847-3.846-8.463-3.846H560v-59.999h187.691q30.308 0 51.308 21t21 51.308v535.382q0 30.308-21 51.308t-51.308 21H560Z"/></svg>

<svg xmlns="http://www.w3.org/2000/svg" height="24" viewBox="0 -960 960 960" width="24"><path d="M420-140H212.31Q182-140 161-161q-21-21-21-51.31v-535.38Q140-778 161-799q21-21 51.31-21H420v-54.61q0-12.77 8.62-21.39 8.61-8.61 21.38-8.61t21.38 8.61q8.62 8.62 8.62 21.39v789.22q0 12.77-8.62 21.39-8.61 8.61-21.38 8.61T428.62-64Q420-72.62 420-85.39V-140ZM200-240h220v-263.85L200-240Zm360 100v-340l200 240v-507.69q0-4.62-3.85-8.46-3.84-3.85-8.46-3.85H560v-60h187.69Q778-820 799-799q21 21 21 51.31v535.38Q820-182 799-161q-21 21-51.31 21H560Z"/></svg>
